X: 227
T: Nher  cai shiliu
L: 1/16
M: 2/4
K: A
B2 B e B A F A [I:setbarnb 1]| 
B8 | 
e2 B c B A F2 | 
E8 | 
F AB4B e | 
B A G F2< E2 F | 
A2 A F E F E C | 
B,8 |]

@@@ Tune index: 9101
